X: 0901
M: 4/4
L: 1/8
K: D
(3ABc |\
d2f>g a2A2 | B>cd>e f2A2 | B>cd>e f>de>c | d2d>d d2A/B/c/d/ |\
e2c>A e2d>B | e2c>A a2f>d | e>e c>A d>d B>^G | A2A>A A2 :|
|: A2 |\
|: A2 |\
d4 c2B2 | B>A A>A A2z2 | B4 A2G2 | G2F>F F2A2 |\
dd/e/ fe dcBA | B2b2 A2a2 | G>e F>d E2c2 | d2d>d d2 :|

